public/img/logos/QIP.svg

<svg baseProfile="full" xmlns="http://www.w3.org/2000/svg" height="56" width="239">
  <path fill="#4393CA" d="M239 7.435v39.13c0 3-2.436 5.435-5.438 5.435H70.437A5.438 5.438 0 0 1 65 46.565v-8.826l7.634-7.63a4.341 4.341 0 0 0 0-6.142L65 16.337V7.435C65 4.435 67.436 2 70.437 2h163.125A5.438 5.438 0 0 1 239 7.435z"/>
  <path fill="#FFF" d="M215.119 9.998c-2.868 0-2.89 2.749-2.89 2.825v21.255c0 2.348-1.942 4.242-4.336 4.242s-4.335-1.894-4.335-4.242V12.834s-.022-2.836-2.88-2.836c-2.868 0-2.89 2.749-2.89 2.825v21.255c0 5.476 4.523 9.913 10.105 9.913 5.582 0 10.105-4.437 10.105-9.913V12.834s-.022-2.836-2.879-2.836zm-23.123 11.331c0-4.816-4.324-10.303-9.95-11.201a9.833 9.833 0 0 0-1.6-.13h-5.46c-2.891 0-2.891 2.836-2.891 2.836l.011 2.824V38.32h-.011v2.836c0 .086.045 2.835 2.891 2.835 1.445 0 2.162-.703 2.526-1.418.364-.714.364-1.417.364-1.417V38.32h-.011l.011-2.824V32.66h2.57c.552 0 1.092.076 1.6.217 2.416.681 4.17 2.867 4.17 5.443v2.836c0 1.569 1.302 2.835 2.89 2.835 1.6 0 2.89-1.266 2.89-2.835V38.32c0-2.9-1.577-6.039-4.048-8.29 2.471-1.85 4.048-4.448 4.048-8.701zm-9.95 5.444a5.993 5.993 0 0 1-1.6.216h-2.57l-.011-11.331h2.581c.552 0 1.092.087 1.6.228 2.416.681 4.17 2.857 4.17 5.443 0 2.587-1.754 4.762-4.17 5.444zm-21.81 11.547c-1.588 0-2.879 1.277-2.879 2.836 0 1.569 1.291 2.835 2.879 2.835 1.6 0 2.891-1.266 2.891-2.835 0-1.559-1.291-2.836-2.891-2.836zm-1.588-24.48a11.569 11.569 0 0 0-7.072-3.733 10.935 10.935 0 0 0-1.588-.109h-5.472c-2.89 0-2.89 2.836-2.89 2.836l.011 2.824-.011 25.541c.022.368.221 2.792 2.89 2.792 2.681 0 2.868-2.446 2.89-2.792l-.011-8.539h2.593c.54 0 1.07-.032 1.588-.108a11.57 11.57 0 0 0 7.072-3.734 11.147 11.147 0 0 0 0-14.978zm-7.072 12.933a5.905 5.905 0 0 1-1.588.216h-2.593V15.658h2.593c.551 0 1.081.076 1.588.228 2.416.671 4.181 2.857 4.181 5.443 0 2.587-1.765 4.773-4.181 5.444zM132.37 9.998c-2.868 0-2.89 2.749-2.89 2.825v28.333c0 .086.044 2.835 2.879 2.835h.011c2.88 0 2.88-2.835 2.88-2.835V12.834s-.022-2.836-2.88-2.836zm-12.675 27.099l-.254-.259a16.648 16.648 0 0 0 3.199-9.849c0-9.372-7.755-16.98-17.319-16.98a17.447 17.447 0 0 0-12.245 4.978c-3.133 3.074-5.075 7.316-5.075 12.002 0 9.383 7.755 16.991 17.32 16.991a17.91 17.91 0 0 0 5.361-.822 17.191 17.191 0 0 0 4.667-2.316l2.305 2.262c.044.043.938.887 2.118.887.607 0 1.28-.216 1.964-.887.684-.671.904-1.332.904-1.927 0-1.19-.904-2.078-.904-2.078l-2.041-2.002zm-4.424-4.35l-1.677-1.645s-2.051-1.981-4.081 0c-2.03 1.991-.066 3.95 0 4.004l1.677 1.645a11.66 11.66 0 0 1-5.869 1.569 11.63 11.63 0 0 1-8.164-3.311c-2.096-2.057-3.386-4.881-3.386-8.02 0-6.255 5.173-11.331 11.55-11.331a11.727 11.727 0 0 1 8.174 3.323c2.085 2.056 3.376 4.881 3.376 8.008 0 2.1-.585 4.069-1.6 5.758z"/>
  <path fill="#99B941" d="M65.722 27.117l-9.845-8.626C51.946 7.711 41.516 0 29.277 0 13.659 0 .998 12.535.998 28s12.661 28 28.279 28c12.629 0 23.318-8.195 26.947-19.514l9.498-8.314c.347-.291.347-.764 0-1.055z"/>
  <path fill="#FFF" d="M23.026 10.116a1.38 1.38 0 0 0-1.128-1.12 1.4 1.4 0 0 0-1.656 1.602l.742 4.596.04.157a4.04 4.04 0 0 1 .874-.911 6.17 6.17 0 0 1 1.677-.932l-.549-3.392zm-1.179 29.063l-1.29-8.616a1.403 1.403 0 0 0-1.402-1.183v-.011l-5.752-.063c-.772 0-1.402.702-1.402 1.466 0 .115.884 5.81.884 5.81.132.67.783 1.131 1.443 1.131h4.451l.284 1.864a1.395 1.395 0 0 0 1.596 1.172 1.384 1.384 0 0 0 1.188-1.57zm-6.361-4.115l-.436-3.046h2.875l.407 3.046h-2.846zm19.002-18.467c-1.514-.335-8.424-1.456-8.556-1.456-1.9 0-3.516 1.246-4.034 2.942a4.298 4.298 0 0 0-.183 1.194c0 .23.021.45.061.659 0 0 3.181 19.389 3.191 19.4l.03.199c.315 1.968 2.165 3.444 4.166 3.444l1.728.01a4.234 4.234 0 0 0 3.993-3.067v-.021l2.866-18.426v-.01c.03-.157.599-4.01-3.262-4.868zm-2.297 22.205v.429c-.081.691-.68.785-1.402.785-.091.011-1.626-.073-1.626-.073-.508 0-.945-.178-1.199-.576l-.111-.481c-.041-.095-.722-3.173-1.423-7.517h7.021l-1.26 7.433zm2.785-17.745l-1.006 7.276h-8.078c-.61-3.78-1.372-8.972-1.372-9.056 0-.764.63-1.382 1.412-1.382.051 0 6.625 1.11 7.946 1.403 1.342.293 1.098 1.748 1.098 1.759zm11.604 8.249l-5.751.063v.011a1.387 1.387 0 0 0-1.393 1.183l-1.3 8.616c-.112.753.427 1.465 1.199 1.57a1.4 1.4 0 0 0 1.595-1.172l.285-1.864h4.45c.661 0 1.311-.461 1.443-1.131 0 0 .884-5.695.884-5.81 0-.764-.63-1.466-1.412-1.466zm-2.073 5.758h-2.855l.416-3.046h2.866l-.427 3.046z"/>
</svg>

<?xml version="1.0" encoding="utf-8"?>
<!DOCTYPE svg PUBLIC "-//W3C//DTD SVG 1.1//EN" "http://www.w3.org/Graphics/SVG/1.1/DTD/svg11.dtd">
<svg version="1.1" baseProfile="full"
 xmlns="http://www.w3.org/2000/svg"
 xmlns:xlink="http://www.w3.org/1999/xlink"
 xmlns:ev="http://www.w3.org/2001/xml-events" 
  height="56px" 
  width="239px" 
>
<path fill="rgb( 67, 147, 202 )"
 d="M239,7.435 C239,7.435 239,46.565 239,46.565 C239,49.565 236.564,52 233.562,52 C233.562,52 70.437,52 70.437,52 C67.436,52 65,49.565 65,46.565 C65,46.565 65,37.739 65,37.739 C65,37.739 72.634,30.109 72.634,30.109 C74.331,28.413 74.331,25.663 72.634,23.967 C72.634,23.967 65,16.337 65,16.337 C65,16.337 65,7.435 65,7.435 C65,4.435 67.436,2 70.437,2 C70.437,2 233.562,2 233.562,2 C236.564,2 239,4.435 239,7.435 Z "/>
<path fill="rgb( 255, 255, 255 )"
 d="M215.119,9.998 C212.251,9.998 212.229,12.747 212.229,12.823 C212.229,12.823 212.229,34.078 212.229,34.078 C212.229,36.426 210.287,38.32 207.893,38.32 C205.499,38.32 203.558,36.426 203.558,34.078 C203.558,34.078 203.558,12.834 203.558,12.834 C203.558,12.834 203.536,9.998 200.678,9.998 C197.81,9.998 197.788,12.747 197.788,12.823 C197.788,12.823 197.788,34.078 197.788,34.078 C197.788,39.554 202.311,43.991 207.893,43.991 C213.475,43.991 217.998,39.554 217.998,34.078 C217.998,34.078 217.998,12.834 217.998,12.834 C217.998,12.834 217.976,9.998 215.119,9.998 ZM191.996,21.329 C191.996,16.513 187.672,11.026 182.046,10.128 C181.527,10.042 180.987,9.998 180.446,9.998 C180.446,9.998 174.986,9.998 174.986,9.998 C172.095,9.998 172.095,12.834 172.095,12.834 C172.095,12.834 172.106,15.658 172.106,15.658 C172.106,15.658 172.106,38.32 172.106,38.32 C172.106,38.32 172.095,38.32 172.095,38.32 C172.095,38.32 172.095,41.156 172.095,41.156 C172.095,41.242 172.14,43.991 174.986,43.991 C176.431,43.991 177.148,43.288 177.512,42.573 C177.876,41.859 177.876,41.156 177.876,41.156 C177.876,41.156 177.876,38.32 177.876,38.32 C177.876,38.32 177.865,38.32 177.865,38.32 C177.865,38.32 177.876,35.496 177.876,35.496 C177.876,35.496 177.876,32.66 177.876,32.66 C177.876,32.66 180.446,32.66 180.446,32.66 C180.998,32.66 181.538,32.736 182.046,32.877 C184.462,33.558 186.216,35.744 186.216,38.32 C186.216,38.32 186.216,41.156 186.216,41.156 C186.216,42.725 187.518,43.991 189.106,43.991 C190.706,43.991 191.996,42.725 191.996,41.156 C191.996,41.156 191.996,38.32 191.996,38.32 C191.996,35.42 190.419,32.281 187.948,30.03 C190.419,28.18 191.996,25.582 191.996,21.329 ZM182.046,26.773 C181.538,26.914 180.998,26.989 180.446,26.989 C180.446,26.989 177.876,26.989 177.876,26.989 C177.876,26.989 177.865,15.658 177.865,15.658 C177.865,15.658 180.446,15.658 180.446,15.658 C180.998,15.658 181.538,15.745 182.046,15.886 C184.462,16.567 186.216,18.743 186.216,21.329 C186.216,23.916 184.462,26.091 182.046,26.773 ZM160.236,38.32 C158.648,38.32 157.357,39.597 157.357,41.156 C157.357,42.725 158.648,43.991 160.236,43.991 C161.836,43.991 163.127,42.725 163.127,41.156 C163.127,39.597 161.836,38.32 160.236,38.32 ZM158.648,13.84 C156.861,11.849 154.379,10.485 151.576,10.107 C151.058,10.031 150.528,9.998 149.988,9.998 C149.988,9.998 144.516,9.998 144.516,9.998 C141.626,9.998 141.626,12.834 141.626,12.834 C141.626,12.834 141.637,15.658 141.637,15.658 C141.637,15.658 141.626,41.199 141.626,41.199 C141.648,41.567 141.847,43.991 144.516,43.991 C147.197,43.991 147.384,41.545 147.406,41.199 C147.406,41.199 147.395,32.66 147.395,32.66 C147.395,32.66 149.988,32.66 149.988,32.66 C150.528,32.66 151.058,32.628 151.576,32.552 C154.379,32.173 156.861,30.81 158.648,28.818 C160.446,26.827 161.538,24.197 161.538,21.329 C161.538,18.451 160.446,15.832 158.648,13.84 ZM151.576,26.773 C151.069,26.914 150.539,26.989 149.988,26.989 C149.988,26.989 147.395,26.989 147.395,26.989 C147.395,26.989 147.395,15.658 147.395,15.658 C147.395,15.658 149.988,15.658 149.988,15.658 C150.539,15.658 151.069,15.734 151.576,15.886 C153.992,16.557 155.757,18.743 155.757,21.329 C155.757,23.916 153.992,26.102 151.576,26.773 ZM132.37,9.998 C129.502,9.998 129.48,12.747 129.48,12.823 C129.48,12.823 129.48,41.156 129.48,41.156 C129.48,41.242 129.524,43.991 132.359,43.991 C132.359,43.991 132.37,43.991 132.37,43.991 C135.25,43.991 135.25,41.156 135.25,41.156 C135.25,41.156 135.25,12.834 135.25,12.834 C135.25,12.834 135.228,9.998 132.37,9.998 ZM119.695,37.097 C119.695,37.097 119.441,36.838 119.441,36.838 C121.46,34.067 122.64,30.669 122.64,26.989 C122.64,17.617 114.885,10.009 105.321,10.009 C100.544,10.009 96.209,11.914 93.076,14.987 C89.943,18.061 88.001,22.303 88.001,26.989 C88.001,36.372 95.756,43.98 105.321,43.98 C107.185,43.98 108.994,43.688 110.682,43.158 C112.37,42.617 113.937,41.837 115.349,40.842 C115.349,40.842 117.654,43.104 117.654,43.104 C117.698,43.147 118.592,43.991 119.772,43.991 C120.379,43.991 121.052,43.775 121.736,43.104 C122.42,42.433 122.64,41.772 122.64,41.177 C122.64,39.987 121.736,39.099 121.736,39.099 C121.736,39.099 119.695,37.097 119.695,37.097 ZM115.271,32.747 C115.271,32.747 113.594,31.102 113.594,31.102 C113.594,31.102 111.543,29.121 109.513,31.102 C107.483,33.093 109.447,35.052 109.513,35.106 C109.513,35.106 111.19,36.751 111.19,36.751 C109.469,37.747 107.472,38.32 105.321,38.32 C102.133,38.32 99.242,37.054 97.157,35.009 C95.061,32.952 93.771,30.128 93.771,26.989 C93.771,20.734 98.944,15.658 105.321,15.658 C108.509,15.669 111.399,16.935 113.495,18.981 C115.58,21.037 116.871,23.862 116.871,26.989 C116.871,29.089 116.286,31.058 115.271,32.747 Z "/>
<path fill="rgb( 153, 185, 65 )"
 d="M65.722,27.117 C65.722,27.117 55.877,18.491 55.877,18.491 C51.946,7.711 41.516,0 29.277,0 C13.659,0 0.998,12.535 0.998,28 C0.998,43.465 13.659,56 29.277,56 C41.906,56 52.595,47.805 56.224,36.486 C56.224,36.486 65.722,28.172 65.722,28.172 C66.069,27.881 66.069,27.408 65.722,27.117 Z "/>
<path fill="rgb( 255, 255, 255 )"
 d="M23.026,10.116 C22.925,9.53 22.457,9.09 21.898,8.996 C21.736,8.965 21.563,8.95399999999999 21.39,8.986 C20.628,9.122 20.11,9.834 20.242,10.598 C20.242,10.598 20.984,15.194 20.984,15.194 C20.984,15.194 21.024,15.351 21.024,15.351 C21.228,15.047 21.522,14.733 21.898,14.44 C22.355,14.084 22.914,13.749 23.575,13.508 C23.575,13.508 23.026,10.116 23.026,10.116 ZM21.847,39.179 C21.847,39.179 20.557,30.563 20.557,30.563 C20.445,29.872 19.846,29.369 19.155,29.38 C19.155,29.38 19.155,29.369 19.155,29.369 C19.155,29.369 13.403,29.306 13.403,29.306 C12.631,29.306 12.001,30.008 12.001,30.772 C12.001,30.887 12.885,36.582 12.885,36.582 C13.017,37.252 13.668,37.713 14.328,37.713 C14.328,37.713 18.779,37.713 18.779,37.713 C18.779,37.713 19.063,39.577 19.063,39.577 C19.175,40.341 19.886,40.864 20.659,40.749 C21.431,40.644 21.959,39.932 21.847,39.179 ZM15.486,35.064 C15.486,35.064 15.05,32.018 15.05,32.018 C15.05,32.018 17.925,32.018 17.925,32.018 C17.925,32.018 18.332,35.064 18.332,35.064 C18.332,35.064 15.486,35.064 15.486,35.064 ZM34.488,16.597 C32.974,16.262 26.064,15.141 25.932,15.141 C24.032,15.141 22.416,16.387 21.898,18.083 C21.786,18.471 21.715,18.869 21.715,19.277 C21.715,19.507 21.736,19.727 21.776,19.936 C21.776,19.936 24.957,39.325 24.967,39.336 C24.967,39.336 24.997,39.535 24.997,39.535 C25.312,41.503 27.162,42.979 29.163,42.979 C29.163,42.979 30.891,42.989 30.891,42.989 C32.801,42.948 34.396,41.66 34.884,39.922 C34.884,39.922 34.884,39.901 34.884,39.901 C34.884,39.901 37.75,21.475 37.75,21.475 C37.75,21.475 37.75,21.465 37.75,21.465 C37.78,21.308 38.349,17.455 34.488,16.597 ZM32.191,38.802 C32.191,38.802 32.191,39.231 32.191,39.231 C32.11,39.922 31.511,40.016 30.789,40.016 C30.698,40.027 29.163,39.943 29.163,39.943 C28.655,39.943 28.218,39.765 27.964,39.367 C27.964,39.367 27.853,38.886 27.853,38.886 C27.812,38.791 27.131,35.713 26.43,31.369 C26.43,31.369 33.451,31.369 33.451,31.369 C33.451,31.369 32.191,38.802 32.191,38.802 ZM34.976,21.057 C34.976,21.057 33.97,28.333 33.97,28.333 C33.97,28.333 25.892,28.333 25.892,28.333 C25.282,24.553 24.52,19.361 24.52,19.277 C24.52,18.513 25.15,17.895 25.932,17.895 C25.983,17.895 32.557,19.005 33.878,19.298 C35.22,19.591 34.976,21.046 34.976,21.057 ZM46.58,29.306 C46.58,29.306 40.829,29.369 40.829,29.369 C40.829,29.369 40.829,29.38 40.829,29.38 C40.138,29.369 39.538,29.872 39.436,30.563 C39.436,30.563 38.136,39.179 38.136,39.179 C38.024,39.932 38.563,40.644 39.335,40.749 C40.097,40.864 40.818,40.341 40.93,39.577 C40.93,39.577 41.215,37.713 41.215,37.713 C41.215,37.713 45.665,37.713 45.665,37.713 C46.326,37.713 46.976,37.252 47.108,36.582 C47.108,36.582 47.992,30.887 47.992,30.772 C47.992,30.008 47.362,29.306 46.58,29.306 ZM44.507,35.064 C44.507,35.064 41.652,35.064 41.652,35.064 C41.652,35.064 42.068,32.018 42.068,32.018 C42.068,32.018 44.934,32.018 44.934,32.018 C44.934,32.018 44.507,35.064 44.507,35.064 Z "/>
</svg>
